X: 125
T: Cast a Bell
P: Longways for as many as will
%R:
B: "The Dancing-Master: Containing Directions and Tunes for Dancing" printed by W. Pearson for John Walsh, London ca. 1709
S: 7: DMDfD http://digital.nls.uk/special-collections-of-printed-music/pageturner.cfm?id=89751228 p.42
Z: 2013 John Chambers <jc:trillian.mit.edu>
N: The dance description is in three sections and two columns; ## used to separate columns.
M: C|
L: 1/8
K: D
% - - - - - - - - - - - - - - - - - - - - - - - - -
[| F>G A>A f2 e>d | f2 e>d e2 E2 | F>G A>A f2 e>d | d<B A<F E2 D2 |]
% - - - - - - - - - - - - - - - - - - - - - - - - -
%%begintext align
%% Lead up a D. forward and back, set and turn S .| That again :|
%% ##
%%    First cu. change places, set and turn S. .| First man lead your
%%    own and the 2. wo. forward and back, bring the 2. wo. under
%%    your arms, leave her and turn your own :| Do thus to the last,
%%    the rest following and doing the like.
%%endtext
%%sep 1 1 300
%%begintext align
%% Sides all, set and turn S. .| That again :|
%% ##
%%    First cu. change places, set and turn S. .| First cu. meet the 2. cu.
%%    lead each other's wo. to each Wall, meet your own turn them,
%%    Do thus to the last, the rest following.
%%endtext
%%sep 1 1 300
%%begintext align
%% Arms all, set and turn S. .| That again :|
%% ##
%%    First cu. take both hands, slip down between the 2. cu. cross and
%%    turn each one of them with your right hands, fall to your own
%%    side in the 2. place .| Do thus to the last, the rest following.
%%endtext
%%sep 1 8 500

%%sep 1 1 500
%%sep 1 1 500
